X:1
T:Title
%%score { ( 1 3 ) | 2 }
L:1/8
Q:1/4=100
M:6/8
K:Ab
V:1 treble nm="Grand Piano"
V:3 treble 
V:2 bass 
V:1
 [Ec]2 [Ec] [Ec]2 [DB] | [CA]2 [CE] [DF]2 [CE] | [EA]2 [FA] [EA]2 [EB] | [Ec]2 [EA] [EB]3 | %4
w: Edwin~Moore * * *||||
 [Ec]2 [DB] [CA]2 [EA] | [Ed]2 [Ec] [EB]2 [EB] | [Ee]2 d c2 [FB] | [EA]2 [DG] [CA]3 | c3 c2 c | %9
w: |||||
 e3 e2 e | A2 A [FA]2 [FB] | [Ec]3 [Ec]3 | d3 d2 d | c3 [Ec]3 | .B3 z3 | E6 | c3 c2 c | e3 e3 | %18
w: |||||||||
 A2 A [FA]2 [FB] | [Ec]3 [Ec]3 | F3 G2 F | E3 A2 [FB] | c3 c2 B | [CA]6 |] %24
w: ||||||
V:2
 [A,,A,]2 [A,,A,] [A,,A,]2 [A,,E,] | [A,,E,]2 [A,,A,] [A,,A,]2 [A,,A,] | %2
 [C,A,]2 [D,A,] [C,A,]2 [B,,G,] | [A,,A,]2 [C,A,] [E,G,]3 | [A,,A,]2 [A,,E,] [A,,E,]2 [C,A,] | %5
 [B,,G,]2 [A,,A,] [E,G,]2 [D,G,] | [C,A,]2 [E,G,E] [A,E]2 [D,D] | [E,C]2 [E,B,] [A,,A,]3 | %8
 [A,E]3 [A,E]2 [A,E] | [G,B,E]3 [G,B,E]2 [G,B,E] | [F,CF]2 [F,CF] [D,D]2 [D,A,] | %11
 [A,,A,]3 [A,,A,]3 | [F,A,D]3 [G,B,E]2 [G,B,E] | [A,E]3 [A,,A,]3 | .[B,,G,]3 [B,,B,]2 [B,,A,] | %15
 [E,G,]6 | [A,E]3 [A,E]2 [A,E] | [G,B,E]3 [G,B,E]3 | [F,CF]2 [F,CF] [D,D]2 [D,A,] | %19
 [A,,A,]3 [A,,A,]3 | [D,A,D]3 [=D,A,_C]2 [D,A,C] | [E,A,C]3 [F,A,C]2 [D,A,] | %22
 [E,A,E]3 [E,G,E]2 [E,G,D] | [A,,A,]6 |] %24
V:3
 x6 | x6 | x6 | x6 | x6 | x6 | x6 | x6 | x6 | x6 | x6 | x6 | x6 | x6 | E2- [B,EG] [FA]2 [=DF] | %15
 x6 | x6 | x6 | x6 | x6 | x6 | x6 | x6 | x6 |] %24

